dist/img/footer/icon-4.svg

<svg width="21" height="21" viewBox="0 0 21 21" fill="none" xmlns="http://www.w3.org/2000/svg">
<path d="M20.7374 6.18438C20.687 5.08266 20.512 4.33029 20.2562 3.67204C19.9964 2.98141 19.5889 2.35585 19.0624 1.83879C18.5455 1.31225 17.9198 0.904635 17.2292 0.644683C16.5708 0.388994 15.8185 0.214166 14.7168 0.164103C13.6131 0.113565 13.2604 0.101562 10.4496 0.101562C7.6388 0.101562 7.28614 0.113565 6.18238 0.163787C5.08067 0.214166 4.32846 0.389152 3.67006 0.644999C2.97943 0.904793 2.35388 1.31225 1.83682 1.83879C1.31029 2.35569 0.902676 2.98125 0.642725 3.67188C0.387039 4.33029 0.212212 5.08266 0.162149 6.18422C0.111612 7.28815 0.0996094 7.64065 0.0996094 10.4515C0.0996094 13.2625 0.111612 13.6151 0.162149 14.7189C0.21237 15.8205 0.387355 16.5728 0.643199 17.2312C0.902992 17.9217 1.31045 18.5474 1.83698 19.0643C2.35388 19.5909 2.97959 19.9983 3.67021 20.2581C4.32846 20.5141 5.08083 20.689 6.18254 20.7393C7.28646 20.7897 7.63896 20.8016 10.4498 20.8016C13.2606 20.8016 13.6132 20.7897 14.717 20.7393C15.8187 20.689 16.5709 20.5141 17.2293 20.2581C18.6196 19.7205 19.7186 18.6215 20.2562 17.2312C20.5122 16.5728 20.687 15.8205 20.7374 14.7189C20.7876 13.615 20.7996 13.2625 20.7996 10.4516C20.7996 7.64065 20.7876 7.28815 20.7374 6.18438ZM18.8743 14.6341C18.8283 15.6433 18.6597 16.1913 18.518 16.5559C18.1698 17.4587 17.4564 18.172 16.5537 18.5203C16.189 18.6619 15.641 18.8306 14.6319 18.8766C13.5407 18.9265 13.2134 18.9369 10.4496 18.9369C7.6857 18.9369 7.35848 18.9265 6.26719 18.8766C5.25818 18.8306 4.71017 18.6619 4.34536 18.5203C3.89589 18.3543 3.48923 18.0898 3.15537 17.7459C2.81156 17.4121 2.54703 17.0056 2.38104 16.5559C2.23938 16.1913 2.07071 15.6433 2.02476 14.6341C1.97501 13.5428 1.96443 13.2154 1.96443 10.4518C1.96443 7.68803 1.97501 7.3608 2.02476 6.26935C2.07087 5.26018 2.23938 4.71216 2.38104 4.3475C2.54703 3.89788 2.81172 3.49121 3.15537 3.15734C3.48923 2.81353 3.89589 2.549 4.34552 2.38317C4.71017 2.24135 5.25818 2.07284 6.26735 2.02673C7.35863 1.97698 7.68602 1.9664 10.4496 1.9664H10.4495C13.213 1.9664 13.5404 1.97698 14.6319 2.02688C15.641 2.07284 16.1889 2.24151 16.5537 2.38317C17.0032 2.54916 17.4098 2.81369 17.7437 3.15734C18.0875 3.49121 18.352 3.89788 18.5179 4.3475C18.6597 4.71216 18.8283 5.26018 18.8743 6.26935C18.9241 7.36064 18.9346 7.68803 18.9346 10.4516C18.9346 13.2154 18.9242 13.5426 18.8743 14.6341Z" fill="white"/>
<path d="M10.4487 5.03003C7.45457 5.03003 5.02734 7.45742 5.02734 10.4515C5.02734 13.4457 7.45457 15.8729 10.4487 15.8729C13.443 15.8729 15.8702 13.4457 15.8702 10.4515C15.8702 7.45742 13.443 5.03003 10.4487 5.03003ZM10.4487 13.9707C8.50524 13.9705 6.92956 12.395 6.92972 10.4514C6.92972 8.50792 8.50524 6.93225 10.4489 6.93225C12.3925 6.93241 13.968 8.50792 13.968 10.4514C13.968 12.395 12.3923 13.9707 10.4487 13.9707Z" fill="white"/>
<path d="M17.3491 4.78373C17.3491 5.46416 16.7974 6.0158 16.117 6.0158C15.4364 6.0158 14.8848 5.46416 14.8848 4.78373C14.8848 4.10315 15.4364 3.55151 16.117 3.55151C16.7974 3.55151 17.3491 4.10315 17.3491 4.78373Z" fill="white"/>
</svg>

<svg width="21" height="21" fill="none" xmlns="http://www.w3.org/2000/svg"><path d="M20.737 6.184c-.05-1.101-.225-1.854-.48-2.512a5.073 5.073 0 00-1.195-1.833A5.074 5.074 0 0017.23.645c-.658-.256-1.41-.43-2.512-.48C13.613.113 13.26.101 10.45.101c-2.811 0-3.164.012-4.268.062-1.101.05-1.854.225-2.512.481-.69.26-1.316.667-1.833 1.194A5.073 5.073 0 00.643 3.672c-.256.658-.43 1.41-.48 2.512C.111 7.288.1 7.641.1 10.451c0 2.811.012 3.164.062 4.268.05 1.101.225 1.854.481 2.512.26.69.667 1.316 1.194 1.833a5.07 5.07 0 001.833 1.194c.658.256 1.41.431 2.513.481 1.103.05 1.456.063 4.267.063 2.81 0 3.163-.012 4.267-.063 1.102-.05 1.854-.225 2.512-.48a5.291 5.291 0 003.027-3.028c.256-.658.431-1.41.481-2.512.05-1.104.063-1.457.063-4.267 0-2.811-.012-3.164-.063-4.268zm-1.863 8.45c-.046 1.01-.214 1.557-.356 1.922a3.427 3.427 0 01-1.964 1.964c-.365.142-.913.31-1.922.357-1.091.05-1.419.06-4.182.06-2.764 0-3.092-.01-4.183-.06-1.009-.046-1.557-.215-1.922-.357a3.207 3.207 0 01-1.19-.774 3.205 3.205 0 01-.774-1.19c-.142-.365-.31-.913-.356-1.922-.05-1.091-.06-1.419-.06-4.182 0-2.764.01-3.091.06-4.183.046-1.009.214-1.557.356-1.921.166-.45.43-.857.774-1.19.334-.344.74-.609 1.19-.775.365-.142.913-.31 1.922-.356 1.092-.05 1.419-.06 4.183-.06 2.763 0 3.09.01 4.182.06 1.009.046 1.557.215 1.922.356.45.166.856.43 1.19.774.343.334.608.74.774 1.19.142.365.31.913.356 1.922.05 1.092.06 1.419.06 4.183 0 2.763-.01 3.09-.06 4.182z" fill="#fff"/><path d="M10.449 5.03a5.421 5.421 0 100 10.843 5.421 5.421 0 000-10.843zm0 8.94a3.52 3.52 0 110-7.038 3.52 3.52 0 010 7.039zm6.901-9.186a1.232 1.232 0 11-2.465 0 1.232 1.232 0 012.464 0z" fill="#fff"/></svg>
